X: 31239
T: Paddy Fahey's
R: reel
M: 4/4
K: Gdorian
B2 Ac BG (3A/G/F/G|AF (3G/F/E/F cFAc|B2 Ac Bdga ^fd^cd fdA=c|
B3 d BG^FG|AF (3G/F/E/F cFAc|B2 Ac Bdga|^fdcA G4||
bagb ag^fa|g^fdc BG (3A/G/F/G|B/c/d gb ag^fa|g^fdc dggf|
g2 bg a^fde|faeg ^fdcA|G3 A =Bcde|^fgag fdAc||
B2 Ac BG (3A/G/F/G|AF (3G/F/E/F cFAc|B2 Ac Bdga ^fd^cd fdA=c|
B3 d BG^FG|AF (3G/F/E/F cFAc|B2 Ac Bdga|^fdcA G4||
bagb ag^fa|g^fdc BG (3A/G/F/G|B/c/d gb ag^fa|g^fdc dggf|
g2 bg a^fde|faeg ^fdcA|G3 A =Bcde|^fgag fdAc||

